X: 1
T:A friend in need
R:Jig
A:Lancashire
B:Winder
O:England
M:6/8
L:1/8
K:D
A|A2f afd|e2f gab|a2g fed|cde ABc|!
def e2g|f2d g2b|agf edc|d3 d2:|!
|:f|afd afd|A2d f2a|g2f e2d|cec ABc|!
d2f afd|ege g2b|agf edc|d3 d2:|!
